src/assets/images/chat.svg

<svg fill="none" height="40" viewBox="0 0 40 40" width="40" xmlns="http://www.w3.org/2000/svg"><path d="m9.8792 26.2335v-1h-1-2.18599c-.92998 0-1.69321-.7607-1.69321-1.7032v-14.82709c0-.94248.76323-1.70321 1.69321-1.70321h17.61359c.93 0 1.6932.76073 1.6932 1.70321v14.82259c0 .9425-.7632 1.7032-1.6932 1.7032h-8.4702-.3257l-.2633.1919-4.8209 3.5142-.0023.0017c-.0549.0403-.1242.0632-.1986.0632-.0482 0-.1025-.012-.1536-.0382l-.0048-.0025c-.11416-.0578-.1882-.1752-.1882-.3109z" fill="#edecff" stroke="#5a57c6" stroke-width="2"/><path d="m33.3666 10h-7.0531v13.9352c0 1.0051-.7857 1.8192-1.7556 1.8192h-7.5579v1.8056c0 1.5054 1.1806 2.7288 2.6334 2.7288h3.9457l4.6963 3.4565c.2282.1683.4959.2547.7636.2547.2283 0 .4565-.0591.6628-.1865.4125-.2456.6539-.714.6539-1.2052v-2.1239h3.0109c1.4528 0 2.6334-1.2235 2.6334-2.7289v-15.0267c0-1.5054-1.1806-2.7288-2.6334-2.7288z" fill="#5a57c6"/></svg>

<svg width="40" height="40" viewBox="0 0 40 40" fill="none" xmlns="http://www.w3.org/2000/svg">
<path d="M9.8792 26.2335V25.2335H8.8792H6.69321C5.76323 25.2335 5 24.4728 5 23.5303V8.70321C5 7.76073 5.76323 7 6.69321 7H24.3068C25.2368 7 26 7.76073 26 8.70321V23.5258C26 24.4683 25.2368 25.229 24.3068 25.229H15.8366H15.5109L15.2476 25.4209L10.4267 28.9351L10.4244 28.9368C10.3695 28.9771 10.3002 29 10.2258 29C10.1776 29 10.1233 28.988 10.0722 28.9618L10.0674 28.9593C9.95324 28.9015 9.8792 28.7841 9.8792 28.6484V26.2335Z" fill="#EDECFF" stroke="#5A57C6" stroke-width="2"/>
<path d="M33.3666 10H26.3135V23.9352C26.3135 24.9403 25.5278 25.7544 24.5579 25.7544H17V27.56C17 29.0654 18.1806 30.2888 19.6334 30.2888H23.5791L28.2754 33.7453C28.5036 33.9136 28.7713 34 29.039 34C29.2673 34 29.4955 33.9409 29.7018 33.8135C30.1143 33.5679 30.3557 33.0995 30.3557 32.6083V30.4844H33.3666C34.8194 30.4844 36 29.2609 36 27.7555V12.7288C36 11.2234 34.8194 10 33.3666 10Z" fill="#5A57C6"/>
</svg>
